src/actions/symbolic/brisk_system-log-out-symbolic.svg

<svg width="16" height="16" enable-background="new" version="1.1" xmlns="http://www.w3.org/2000/svg" xmlns:osb="http://www.openswatchbook.org/uri/2009/osb">
 <g transform="translate(-545 -81)" fill="#363636">
  <path transform="translate(545 81)" d="m2.9922 1c-1.1033 0-1.9922 0.88889-1.9922 1.9922v10.016c0 1.1033 0.88889 1.9922 1.9922 1.9922h10.016c1.1033 0 1.9922-0.88889 1.9922-1.9922v-10.016c0-1.1033-0.88889-1.9922-1.9922-1.9922h-10.016zm0.0078125 1h10c0.554 0 1 0.446 1 1v10c0 0.554-0.446 1-1 1h-10c-0.554 0-1-0.446-1-1v-10c0-0.554 0.446-1 1-1z"/>
  <rect transform="rotate(45)" x="450.08" y="-330.22" width="6" height="1"/>
  <rect transform="matrix(.70711 -.70711 -.70711 -.70711 0 0)" x="324.22" y="-456.08" width="6" height="1"/>
 </g>
</svg>

<svg xmlns="http://www.w3.org/2000/svg" width="16" height="16">
    <g fill="#050505" opacity=".7">
        <path d="M2.992 1A1.988 1.988 0 0 0 1 2.992v10.016C1 14.112 1.889 15 2.992 15h10.016A1.988 1.988 0 0 0 15 13.008V2.992A1.988 1.988 0 0 0 13.008 1H2.992zM3 2h10c.554 0 1 .446 1 1v10c0 .554-.446 1-1 1H3c-.554 0-1-.446-1-1V3c0-.554.446-1 1-1z"/>
        <path d="m6.755 3.754 4.243 4.242-.707.708L6.048 4.46z"/>
        <path d="M6.758 12.24 11 7.997l-.708-.707-4.242 4.242z"/>
    </g>
</svg>
